X:9
T:Forsans Jigg
M:6/8
L:1/8
N:Play ABBCCA
B:Thompson's Compleat Collection of 200 Favourite Country Dances, vol. 1 (London, 1757)
Z:Transcribed and edited by Fynnian Titford-Mock, 2007
Z:abc's:AK/Fiddler's Companion
K:D
a2a abg|f2f fge|d2d dec|d3 D2 f/g/|a2a abg|f2f fge|d2d dec|d3 D2|
|:f|ec(a a2)f|ec(a a2)d|ceA Bd^G|A3 A,3::a3 f3|^d3 e3|=dbd cac|B3 A3:|

